icons/logo-malt.svg

<svg xmlns="http://www.w3.org/2000/svg" xml:space="preserve" style="fill-rule:evenodd;clip-rule:evenodd;stroke-linejoin:round;stroke-miterlimit:2" viewBox="0 0 24 24"><path d="M13.95 16.602s6.641-.016 6.881-.032c.745 1.136 1.061 2.551-.292 3.907-1.809 1.809-3.747.637-4.959-.575l-2.468-2.464zm-3.84-9.268-6.889.04c-.742-1.108-1.053-2.471.347-3.866 1.905-1.906 3.744-.638 4.956.57l2.424 2.419zm11.402 1.659C22.82 9.247 24 9.994 24 11.97c0 2.695-2.197 3.097-3.911 3.097h-4.601s5.877-5.903 6.024-6.074M8.58 8.869s-5.866 5.887-6.024 6.071C1.224 14.665 0 13.879 0 11.97c0-2.563 2.197-3.101 3.911-3.101zm5.916 12.118c.167.167.335.311.506.458-.276 1.331-1.06 2.555-2.97 2.555s-2.691-1.219-2.971-2.548q.283-.244.547-.51l2.424-2.419zM9.608 2.998h.004a12 12 0 0 0-.558-.507C9.308 1.184 10.05 0 12.028 0c1.977 0 2.719 1.18 2.978 2.483a9 9 0 0 0-.51.47l-2.464 2.464zm10.931.466c1.811 1.81.639 3.747-.573 4.959L8.524 19.862c-1.209 1.209-3.051 2.476-4.956.57-1.906-1.905-.638-3.746.571-4.954L15.58 4.038c1.212-1.212 3.146-2.383 4.959-.574"/></svg>

<?xml version="1.0" encoding="UTF-8" standalone="no"?><!DOCTYPE svg PUBLIC "-//W3C//DTD SVG 1.1//EN" "http://www.w3.org/Graphics/SVG/1.1/DTD/svg11.dtd"><svg width="100%" height="100%" viewBox="0 0 24 24" version="1.1" xmlns="http://www.w3.org/2000/svg" xmlns:xlink="http://www.w3.org/1999/xlink" xml:space="preserve" xmlns:serif="http://www.serif.com/" style="fill-rule:evenodd;clip-rule:evenodd;stroke-linejoin:round;stroke-miterlimit:2;"><path d="M13.95,16.602C13.95,16.602 20.591,16.586 20.831,16.57C21.576,17.706 21.892,19.121 20.539,20.477C18.73,22.286 16.792,21.114 15.58,19.902L13.112,17.438L13.95,16.602ZM10.11,7.334L3.221,7.374C2.479,6.266 2.168,4.903 3.568,3.508C5.473,1.602 7.312,2.87 8.524,4.078L10.948,6.497L10.11,7.334ZM21.512,8.993C22.82,9.247 24,9.994 24,11.97C24,14.665 21.803,15.067 20.089,15.067L15.488,15.067C15.488,15.067 21.365,9.164 21.512,8.993ZM8.58,8.869C8.58,8.869 2.714,14.756 2.556,14.94C1.224,14.665 0,13.879 0,11.97C0,9.407 2.197,8.869 3.911,8.869L8.58,8.869ZM14.496,20.987C14.663,21.154 14.831,21.298 15.002,21.445C14.726,22.776 13.942,24 12.032,24C10.122,24 9.341,22.781 9.061,21.452C9.25,21.289 9.432,21.119 9.608,20.942L12.032,18.523L14.496,20.987ZM9.608,2.998L9.612,2.998C9.42,2.81 9.238,2.651 9.054,2.491C9.308,1.184 10.05,0 12.028,0C14.005,0 14.747,1.18 15.006,2.483C14.83,2.634 14.659,2.79 14.496,2.953L12.032,5.417L9.608,2.998ZM20.539,3.464C22.35,5.274 21.178,7.211 19.966,8.423L8.524,19.862C7.315,21.071 5.473,22.338 3.568,20.432C1.662,18.527 2.93,16.686 4.139,15.478L15.58,4.038C16.792,2.826 18.726,1.655 20.539,3.464Z"/></svg>
